X:11
T:Bee's Wing Hornpipe
C:Scottish
M:4/4
K:C
L:1/8
(3(GAB) |: "C" cgec "G" BfdB | "Am" GecG "C" EcGE | "F" FAdf "C" EGce | "D" (3ded (3cBA "G" G2 (3(GAB) |
"C" cgec' "G" Bgdb | "F" FcAf "C" EcGe | "F" FAdf "G" eGBd |1 "C" c2 "(G)" e2 "(C)" c2 (3(GAB) :|2 "C" c2 "(G)" e2 "(C)" c2 g2 ||
|: "C" (3edc ge c'gec | "G" dB{g/2a/2}gd bgdB | "F" AFcA "D" ^fdec | "G" (3ded (3cBA "(G)" G2 (3(GAB) |
"C" cgec' "G" Bgdb | "F" FcAf "C" EcGe | "F" FAdf "G" eGBd |1 "C" c2 "(G)" e2 "(C)" c2 e2 :|2 "C" c2 "(G)" e2 "(C)" c2 |]

